X:1
T:Some Day
T:Some Day
T:John Herman Alleman
T:John Herman Alleman, 1892
T:Public Domain Courtesy of the Cyber Hymnal™
C:John Herman Alleman
Z:Public Domain
Z:Courtesy of the Cyber Hymnal™
%%score ( 1 2 ) ( 3 4 )
L:1/8
Q:1/4=93
M:3/4
K:Ab
V:1 treble 
V:2 treble 
V:3 bass 
V:4 bass 
V:1
"^Slow and with expression" [CE]2 | [Ec]3 [EA] [DF][DA] | [DF]2 [CE]2 [EA]2 | [Ec]3 [Ec] [Ed][Ec] | %4
w: 1.~Some|day a glad- some|mes- sage Will|fall up- on mine|
w: 2.~Some|day in yon blest|ha- ven, I’ll|walk with Him in|
w: 3.~Some|day the noise of|bat- tle Will|greet my ears no|
w: 4.~Some|day I’ll meet my|loved ones, Who’ve|passed to realms a-|
 [EB]4 E2 | [Ec]3 [EA] [DF][DA] | [DF]2 [CE]2 [EA]2 | [FB]3 [Fc] [Fd][DG] | [CA]4 ||"^Refrain" A2 | %10
w: ear; Some|day His bless- èd|wel- come Will|fill my heart with|cheer.||
w: white; Some|day re- demp- tion’s|sto- ry Will|be my heart’s de-|light.|Some|
w: more; Some|day I’ll walk tri-|umph- ant On|Ca- naan’s hap- py|shore.||
w: bove; Some|day I’ll hear them|sing- ing Sweet|songs of Je- sus’|love.||
 [Fd]4 [Fd]2 | [Ec]4 [Ec]2 | [=Dc]3 [DB] [DA][DF] | [EB]4 [DE]2 | [CE]>[CA] [CA]3 [DB] | %15
w: |||||
w: day, some|day The|jour- ney I’ll com-|plete, And|when the Fa- ther|
w: |||||
w: |||||
 [Ec]>[_Gc] !fermata![Fd]2 [Fd]2 | [Ec]3 [CA] [Ec]!fermata![DB] | [CA]4 |] %18
w: |||
w: calls me home, I’ll|rest at Je- sus’|feet.|
w: |||
w: |||
V:2
 x2 | x6 | x6 | x6 | x4 E2 | x6 | x6 | x6 | x4 || (E_G) | x6 | x6 | x6 | x6 | x6 | x6 | x6 | x4 |] %18
V:3
 [A,,A,]2 | [A,,A,]3 [C,A,] [D,A,][F,A,] | A,2 A,2 [A,C]2 | A,3 A, [G,B,]A, | [E,G,]4 [E,G,]2 | %5
w: ~|~ ~ ~ ~|~ ~ ~|~ ~ ~ ~|~ ~|
 [A,,A,]3 [C,A,] [D,A,][F,A,] | A,2 A,2 [C,A,]2 | [D,A,]3 [C,=A,] [B,,B,][E,B,] | [A,,A,]4 || %9
w: ~ ~ ~ ~|~ ~ ~|~ ~ ~ ~|~|
 [A,C]2 | [D,A,]>[D,A,] A,2 A,2 | A,>[E,A,] [C,A,]2 [A,,A,]2 | [B,,F,]3 [B,,B,] [F,B,][F,A,] | %13
w: ~|~ Some day, ~|~ ~ Some day||
 [E,G,]4 [E,G,]2 | [A,,A,]>[A,,E,] [A,,E,]3 [A,,E,] | [A,,A,]>[A,,A,] !fermata![D,A,]2 [D,A,]2 | %16
w: |||
 [E,A,]3 [E,A,] [E,A,]!fermata![E,G,] | [A,,E,A,]4 |] %18
w: ||
V:4
 x2 | x6 | A,2 A,2 x2 | A,3 A, A, x | x6 | x6 | A,2 A,2 x2 | x6 | x4 || x2 | x2 (D,E,) F,G, | %11
 A,3/2 x9/2 | x6 | x6 | x6 | x6 | x6 | x4 |] %18

